images/ha.svg

<svg xmlns="http://www.w3.org/2000/svg" viewBox="0 0 240 240" enable-background="new 0 0 240 240"><path fill="#fff" d="M103.1 61.2V54H137v7.2h-33.9zm0 14.3v-7.2H137v7.2h-33.9zM144.7 133.4l-6.2-3.6 16.9-29.3 6.2 3.6-16.9 29.3zm12.4 7.2l-6.2-3.6 16.9-29.3 6.2 3.6-16.9 29.3zM78.4 104.1l6.2-3.6 16.9 29.3-6.2 3.6-16.9-29.3zM66 111.3l6.2-3.6 17 29.3-6.2 3.6-17-29.3zM43.9 0C22.8 0 .2 6.4.2 20.3v59.4C.2 93.7 22.9 100 44 100c21.1 0 43.8-6.4 43.8-20.3V20.3C87.7 6.4 65 0 43.9 0zm37.8 79.7c0 7.8-16.8 14.1-37.5 14.1S6.7 87.5 6.7 79.7V68c6.5 6.7 22 10.1 37.5 10.1s31-3.5 37.5-10.1v11.7zm0-18.7c-.1 0 0 0 0 0 0 7.8-16.8 14-37.5 14S6.7 68.8 6.7 61.1V49.3c6.5 6.7 22 10.1 37.5 10.1s31-3.5 37.5-10.1V61zm0-19v.2c0 7.7-16.8 14-37.5 14s-37.5-6.3-37.5-14V31.5c8.2 6.2 23.2 9.2 37.5 9.2s29.3-2.9 37.5-9.2V42zm-37.5-7.6c-20.7 0-37.5-6.3-37.5-14.1S23.5 6.2 44.2 6.2s37.5 6.3 37.5 14.1-16.8 14.1-37.5 14.1zM120 140c-21.1 0-43.8 6.4-43.8 20.3v59.4c0 14 22.7 20.3 43.8 20.3 21.1 0 43.8-6.4 43.8-20.3v-59.4c0-13.9-22.7-20.3-43.8-20.3zm37.8 79.7c0 7.8-16.8 14.1-37.5 14.1s-37.5-6.3-37.5-14.1V208c6.5 6.7 22 10.1 37.5 10.1s31-3.5 37.5-10.1v11.7zm0-18.7c0 7.8-16.8 14-37.5 14s-37.5-6.2-37.5-13.9V189.3c6.5 6.7 22 10.1 37.5 10.1s31-3.5 37.5-10.1V201zm0-19v.2c0 7.7-16.8 14-37.5 14s-37.5-6.3-37.5-14V171.4c8.2 6.2 23.2 9.2 37.5 9.2s29.3-2.9 37.5-9.2V182zm-37.5-7.6c-20.7 0-37.5-6.3-37.5-14.1s16.8-14.1 37.5-14.1 37.5 6.3 37.5 14.1-16.8 14.1-37.5 14.1zM196.1 0c-21.1 0-43.8 6.4-43.8 20.3v59.4c0 14 22.7 20.3 43.8 20.3 21.1 0 43.8-6.4 43.8-20.3V20.3C239.8 6.4 217.2 0 196.1 0zm37.7 79.7c0 7.8-16.8 14.1-37.5 14.1s-37.5-6.3-37.5-14.1V68c6.5 6.7 22 10.1 37.5 10.1s31-3.5 37.5-10.1v11.7zm0-18.7c0 7.8-16.8 14-37.5 14s-37.5-6.2-37.5-13.9V49.3c6.5 6.7 22 10.1 37.5 10.1s31-3.5 37.5-10.1V61zm0-19v.2c0 7.7-16.8 14-37.5 14s-37.5-6.3-37.5-14V31.5c8.2 6.2 23.2 9.2 37.5 9.2s29.3-2.9 37.5-9.2V42zm-37.5-7.6c-20.7 0-37.5-6.3-37.5-14.1s16.8-14.1 37.5-14.1 37.5 6.3 37.5 14.1-16.7 14.1-37.5 14.1z"/></svg>

<?xml version="1.0" encoding="utf-8"?>
<!-- Generator: Adobe Illustrator 17.1.0, SVG Export Plug-In . SVG Version: 6.00 Build 0)  -->
<!DOCTYPE svg PUBLIC "-//W3C//DTD SVG 1.1//EN" "http://www.w3.org/Graphics/SVG/1.1/DTD/svg11.dtd">
<svg version="1.1" id="Layer_1" xmlns="http://www.w3.org/2000/svg" xmlns:xlink="http://www.w3.org/1999/xlink" x="0px" y="0px"
	 viewBox="0 0 240 240" enable-background="new 0 0 240 240" xml:space="preserve">
<g>
	<path fill="#FFFFFF" d="M103.1,61.2V54H137v7.2H103.1z M103.1,75.5v-7.2H137v7.2H103.1z"/>
</g>
<g>
	<path fill="#FFFFFF" d="M144.7,133.4l-6.2-3.6l16.9-29.3l6.2,3.6L144.7,133.4z M157.1,140.6l-6.2-3.6l16.9-29.3l6.2,3.6
		L157.1,140.6z"/>
</g>
<g>
	<path fill="#FFFFFF" d="M78.4,104.1l6.2-3.6l16.9,29.3l-6.2,3.6L78.4,104.1z M66,111.3l6.2-3.6L89.2,137l-6.2,3.6L66,111.3z"/>
</g>
<path fill="#FFFFFF" d="M43.9,0C22.8,0,0.2,6.4,0.2,20.3v59.4c0,14,22.7,20.3,43.8,20.3c21.1,0,43.8-6.4,43.8-20.3V20.3
	C87.7,6.4,65,0,43.9,0z M81.7,79.7c0,7.8-16.8,14.1-37.5,14.1c-20.7,0-37.5-6.3-37.5-14.1V68c6.5,6.7,22,10.1,37.5,10.1
	s31-3.5,37.5-10.1V79.7z M81.7,61L81.7,61C81.6,61,81.7,61,81.7,61c0,7.8-16.8,14-37.5,14S6.7,68.8,6.7,61.1c0,0,0-0.1,0-0.1h0V49.3
	c6.5,6.7,22,10.1,37.5,10.1s31-3.5,37.5-10.1V61z M81.7,42L81.7,42c0,0,0,0.2,0,0.2c0,7.7-16.8,14-37.5,14s-37.5-6.3-37.5-14
	c0,0,0-0.2,0-0.2h0V31.5c8.2,6.2,23.2,9.2,37.5,9.2s29.3-2.9,37.5-9.2V42z M44.2,34.4c-20.7,0-37.5-6.3-37.5-14.1
	c0-7.8,16.8-14.1,37.5-14.1c20.7,0,37.5,6.3,37.5,14.1C81.7,28.1,64.9,34.4,44.2,34.4z"/>
<path fill="#FFFFFF" d="M120,140c-21.1,0-43.8,6.4-43.8,20.3v59.4c0,14,22.7,20.3,43.8,20.3c21.1,0,43.8-6.4,43.8-20.3v-59.4
	C163.8,146.4,141.1,140,120,140z M157.8,219.7c0,7.8-16.8,14.1-37.5,14.1c-20.7,0-37.5-6.3-37.5-14.1V208c6.5,6.7,22,10.1,37.5,10.1
	s31-3.5,37.5-10.1V219.7z M157.8,201L157.8,201C157.8,201,157.8,201,157.8,201c0,7.8-16.8,14-37.5,14s-37.5-6.2-37.5-13.9
	c0,0,0-0.1,0-0.1h0v-11.7c6.5,6.7,22,10.1,37.5,10.1s31-3.5,37.5-10.1V201z M157.8,182L157.8,182c0,0,0,0.2,0,0.2
	c0,7.7-16.8,14-37.5,14s-37.5-6.3-37.5-14c0,0,0-0.2,0-0.2h0v-10.6c8.2,6.2,23.2,9.2,37.5,9.2s29.3-2.9,37.5-9.2V182z M120.3,174.4
	c-20.7,0-37.5-6.3-37.5-14.1c0-7.8,16.8-14.1,37.5-14.1c20.7,0,37.5,6.3,37.5,14.1C157.8,168.1,141,174.4,120.3,174.4z"/>
<path fill="#FFFFFF" d="M196.1,0c-21.1,0-43.8,6.4-43.8,20.3v59.4c0,14,22.7,20.3,43.8,20.3c21.1,0,43.8-6.4,43.8-20.3V20.3
	C239.8,6.4,217.2,0,196.1,0z M233.8,79.7c0,7.8-16.8,14.1-37.5,14.1c-20.7,0-37.5-6.3-37.5-14.1V68c6.5,6.7,22,10.1,37.5,10.1
	s31-3.5,37.5-10.1V79.7z M233.8,61L233.8,61C233.8,61,233.8,61,233.8,61c0,7.8-16.8,14-37.5,14s-37.5-6.2-37.5-13.9c0,0,0-0.1,0-0.1
	h0V49.3c6.5,6.7,22,10.1,37.5,10.1s31-3.5,37.5-10.1V61z M233.8,42L233.8,42c0,0,0,0.2,0,0.2c0,7.7-16.8,14-37.5,14
	s-37.5-6.3-37.5-14c0,0,0-0.2,0-0.2h0V31.5c8.2,6.2,23.2,9.2,37.5,9.2c14.3,0,29.3-2.9,37.5-9.2V42z M196.3,34.4
	c-20.7,0-37.5-6.3-37.5-14.1c0-7.8,16.8-14.1,37.5-14.1c20.7,0,37.5,6.3,37.5,14.1C233.8,28.1,217.1,34.4,196.3,34.4z"/>
</svg>
